sldassets/icons/standard/store_group.svg

<?xml version="1.0"?><svg xmlns="http://www.w3.org/2000/svg" width="100" height="100" viewBox="0 0 100 100"><path fill="#fff" d="m77.2 45.2h-17.1c-1.6 0-2.8 1.3-2.8 2.8 0 0.5 0.4 0.9 0.9 0.9h20.8c0.5 0 0.9-0.4 0.9-0.9 0.1-1.5-1.2-2.8-2.7-2.8z m0 6.6h-17c-0.5 0-0.9 0.4-0.9 0.9v19.9c0 0.5 0.4 0.9 0.9 0.9h5.2c0.5 0 0.9-0.4 0.9-0.9v-3.8c0-0.5 0.5-0.9 1-0.9h2.7c0.5 0 1 0.4 1 0.9v3.8c0 0.5 0.4 0.9 0.9 0.9h5.2c0.5 0 0.9-0.4 0.9-0.9v-19.8c0.1-0.6-0.3-1-0.8-1z m-10 12.8c0 0.5-0.4 0.9-0.9 0.9h-1.9c-0.5 0-0.9-0.4-0.9-0.9v-1.9c0-0.5 0.4-0.9 0.9-0.9h1.9c0.5 0 0.9 0.4 0.9 0.9v1.9z m0-6.6c0 0.5-0.4 0.9-0.9 0.9h-1.9c-0.5 0-0.9-0.4-0.9-0.9v-1.9c0-0.5 0.4-0.9 0.9-0.9h1.9c0.5 0 0.9 0.4 0.9 0.9v1.9z m6.7 6.6c0 0.5-0.4 0.9-0.9 0.9h-2c-0.5 0-0.9-0.4-0.9-0.9v-1.9c0-0.5 0.4-0.9 0.9-0.9h1.9c0.5 0 0.9 0.4 0.9 0.9v1.9z m0-6.6c0 0.5-0.4 0.9-0.9 0.9h-2c-0.5 0-0.9-0.4-0.9-0.9v-1.9c0-0.5 0.4-0.9 0.9-0.9h1.9c0.5 0 0.9 0.4 0.9 0.9v1.9z m-20.8-31.6h-28.5c-2.6 0-4.6 2.1-4.6 4.6v0.1c0 0.9 0.7 1.6 1.6 1.6h34.6c0.9 0 1.6-0.7 1.6-1.6v-0.1c-0.1-2.4-2.2-4.6-4.7-4.6z m-0.1 11h-28.3c-0.9 0-1.6 0.7-1.6 1.6v33c0 0.9 0.7 1.6 1.6 1.6h8.7c0.9 0 1.5-0.7 1.5-1.6v-6.3c0-0.9 0.8-1.6 1.6-1.6h4.6c0.9 0 1.6 0.7 1.6 1.6v6.3c0 0.9 0.6 1.6 1.5 1.6h8.8c0.9 0 1.6-0.7 1.6-1.6v-33c0-0.9-0.7-1.6-1.6-1.6z m-16.5 21.2c0 0.9-0.7 1.6-1.6 1.6h-3.1c-0.9 0-1.6-0.7-1.6-1.6v-3.1c0-0.9 0.7-1.6 1.6-1.6h3.1c0.9 0 1.6 0.7 1.6 1.6v3.1z m0-11c0 0.9-0.7 1.6-1.6 1.6h-3.1c-0.9 0-1.6-0.7-1.6-1.6v-3.1c0-0.9 0.7-1.6 1.6-1.6h3.1c0.9 0 1.6 0.7 1.6 1.6v3.1z m11 11c0 0.9-0.7 1.6-1.6 1.6h-3.1c-0.9 0-1.6-0.7-1.6-1.6v-3.1c0-0.9 0.7-1.6 1.6-1.6h3.1c0.9 0 1.6 0.7 1.6 1.6v3.1z m0-11c0 0.9-0.7 1.6-1.6 1.6h-3.1c-0.9 0-1.6-0.7-1.6-1.6v-3.1c0-0.9 0.7-1.6 1.6-1.6h3.1c0.9 0 1.6 0.7 1.6 1.6v3.1z"></path></svg>

<?xml version="1.0" encoding="utf-8"?>
<!-- Generator: Adobe Illustrator 23.0.2, SVG Export Plug-In . SVG Version: 6.00 Build 0)  -->
<svg version="1.1" id="Layer_1" xmlns="http://www.w3.org/2000/svg" xmlns:xlink="http://www.w3.org/1999/xlink" x="0px" y="0px"
	 width="100px" height="100px" viewBox="0 0 100 100" enable-background="new 0 0 100 100" xml:space="preserve">
<g>
	<g>
		<path fill="#FFFFFF" d="M77.2,45.2H60.1c-1.6,0-2.8,1.3-2.8,2.8v0c0,0.5,0.4,0.9,0.9,0.9h20.8c0.5,0,0.9-0.4,0.9-0.9v0
			C80,46.5,78.7,45.2,77.2,45.2z M77.2,51.8h-17c-0.5,0-0.9,0.4-0.9,0.9v19.9c0,0.5,0.4,0.9,0.9,0.9h5.2c0.5,0,0.9-0.4,0.9-0.9v-3.8
			c0-0.5,0.5-0.9,1-0.9H70c0.5,0,1,0.4,1,0.9v3.8c0,0.5,0.4,0.9,0.9,0.9h5.2c0.5,0,0.9-0.4,0.9-0.9V52.8
			C78.1,52.2,77.7,51.8,77.2,51.8z M67.2,64.6c0,0.5-0.4,0.9-0.9,0.9h-1.9c-0.5,0-0.9-0.4-0.9-0.9v-1.9c0-0.5,0.4-0.9,0.9-0.9h1.9
			c0.5,0,0.9,0.4,0.9,0.9V64.6z M67.2,58c0,0.5-0.4,0.9-0.9,0.9h-1.9c-0.5,0-0.9-0.4-0.9-0.9v-1.9c0-0.5,0.4-0.9,0.9-0.9h1.9
			c0.5,0,0.9,0.4,0.9,0.9V58z M73.9,64.6c0,0.5-0.4,0.9-0.9,0.9H71c-0.5,0-0.9-0.4-0.9-0.9v-1.9c0-0.5,0.4-0.9,0.9-0.9h1.9
			c0.5,0,0.9,0.4,0.9,0.9V64.6z M73.9,58c0,0.5-0.4,0.9-0.9,0.9H71c-0.5,0-0.9-0.4-0.9-0.9v-1.9c0-0.5,0.4-0.9,0.9-0.9h1.9
			c0.5,0,0.9,0.4,0.9,0.9V58z"/>
	</g>
	<g>
		<g>
			<path fill="#FFFFFF" d="M53.1,26.4H24.6c-2.6,0-4.6,2.1-4.6,4.6v0.1c0,0.9,0.7,1.6,1.6,1.6h34.6c0.9,0,1.6-0.7,1.6-1.6v-0.1
				C57.7,28.6,55.6,26.4,53.1,26.4z M53,37.4H24.7c-0.9,0-1.6,0.7-1.6,1.6v33c0,0.9,0.7,1.6,1.6,1.6h8.7c0.9,0,1.5-0.7,1.5-1.6v-6.3
				c0-0.9,0.8-1.6,1.6-1.6h4.6c0.9,0,1.6,0.7,1.6,1.6V72c0,0.9,0.6,1.6,1.5,1.6H53c0.9,0,1.6-0.7,1.6-1.6V39
				C54.6,38.1,53.9,37.4,53,37.4z M36.5,58.6c0,0.9-0.7,1.6-1.6,1.6h-3.1c-0.9,0-1.6-0.7-1.6-1.6v-3.1c0-0.9,0.7-1.6,1.6-1.6h3.1
				c0.9,0,1.6,0.7,1.6,1.6V58.6z M36.5,47.6c0,0.9-0.7,1.6-1.6,1.6h-3.1c-0.9,0-1.6-0.7-1.6-1.6v-3.1c0-0.9,0.7-1.6,1.6-1.6h3.1
				c0.9,0,1.6,0.7,1.6,1.6V47.6z M47.5,58.6c0,0.9-0.7,1.6-1.6,1.6h-3.1c-0.9,0-1.6-0.7-1.6-1.6v-3.1c0-0.9,0.7-1.6,1.6-1.6h3.1
				c0.9,0,1.6,0.7,1.6,1.6V58.6z M47.5,47.6c0,0.9-0.7,1.6-1.6,1.6h-3.1c-0.9,0-1.6-0.7-1.6-1.6v-3.1c0-0.9,0.7-1.6,1.6-1.6h3.1
				c0.9,0,1.6,0.7,1.6,1.6V47.6z"/>
		</g>
	</g>
</g>
</svg>
